icons/actions/24/draw-rectangle.svg

<svg version="1.1" viewBox="0 0 24 24" xmlns="http://www.w3.org/2000/svg">
    <defs>
        <style type="text/css" id="current-color-scheme">.ColorScheme-Text {
        color:#232629;
      }</style>
    </defs>
    <path class="ColorScheme-Text" d="m4 4v16h16v-16h-16m1 1h14v14h-14v-14" fill="currentColor"/>
    <path d="m4.5056245 11.977873v-7.5052069h14.878582v15.010415h-14.878582z" class="ColorScheme-Text" fill="currentColor" fill-opacity=".50196078"/>
</svg>

<svg xmlns="http://www.w3.org/2000/svg" viewBox="0 0 24 24">
  <defs id="defs3051">
    <style type="text/css" id="current-color-scheme">
      .ColorScheme-Text {
        color:#232629;
      }
      </style>
  </defs>
 <path style="fill:currentColor;fill-opacity:1;stroke:none" 
     d="M 4 4 L 4 20 L 20 20 L 20 4 L 4 4 z M 5 5 L 19 5 L 19 19 L 5 19 L 5 5 z "
     class="ColorScheme-Text"
     />
</svg>
